ALTDEU
CUT[Der Baer]
REG[Europa, Mitteleuropa, Deutschland]
TRD[]
FKT[]
SIG[A0460]
KEY[A0460   02  F 3/2]
MEL[1  112  3_1  334  5_
    5  555  554  312  1_
    5  555  554  312  1_ //]
BEM[]
MEL_SEM[0 0 2 2 -4 4 0 1 2 0 0 0 0 0 0 -2 -1 -4 2 -2 7 0 0 0 0 0 -2 -1 -4 2 -2]
MEL_RAW[1  112  31  334  5
    5  555  554  312  1
    5  555  554  312  1]
NO_REP[1231345
    543121
    543121]
RTM[x  xxx  x_x  xxx  x_
    x  xxx  xxx  xxx  x_
    x  xxx  xxx  xxx  x_]
SCL_DEG[12345]
SCL_SEM[2 2 1 2]

